dist/img/logo-ico.svg

<!-- Generated by IcoMoon.io -->
<svg version="1.1" xmlns="http://www.w3.org/2000/svg" width="1024" height="1024" viewBox="0 0 1024 1024">
<title></title>
<g id="icomoon-ignore">
</g>

    <defs>
        <linearGradient id="logo-gradient" x1="25%" y1="0%" x2="75%" y2="100%" >

            <stop offset="0%" stop-color="#FF5C00">
                <animate attributeName="stop-color" values="#FF5C00; #001395; #FF5C00" dur="2s" repeatCount="indefinite"></animate>
            </stop>

            <stop offset="100%" stop-color="#001395">
                <animate attributeName="stop-color" values="#001395; #FF5C00; #001395" dur="2s" repeatCount="indefinite"></animate>
            </stop>

        </linearGradient>
    </defs>

<path fill="url('#logo-gradient')" d="M103.474 994.715l239.161-540.797h-301.636v-156.187h502.726v111.283l-245.018 585.701z"></path>
<path fill="url('#logo-gradient')" d="M103.474 994.715l-26.783-11.843-18.189 41.128h44.972zM342.635 453.918l26.784 11.843 18.188-41.128h-44.972zM40.999 453.918h-29.285v29.285h29.285zM40.999 297.732v-29.285h-29.285v29.285zM543.725 297.732h29.285v-29.285h-29.285zM543.725 409.015l27.015 11.302 2.27-5.423v-5.879zM298.707 994.715v29.285h19.494l7.521-17.983zM130.257 1006.559l239.162-540.797-53.567-23.687-239.16 540.797zM342.635 424.633h-301.636v58.57h301.636zM70.284 453.918v-156.187h-58.57v156.187zM40.999 327.017h502.726v-58.57h-502.726zM514.44 297.732v111.283h58.57v-111.283zM516.71 397.713l-245.018 585.701 54.031 22.603 245.018-585.701zM298.707 965.43h-195.234v58.57h195.234z"></path>
<path fill="url('#logo-gradient')" d="M542.749 726.269l239.161-540.797h-301.636v-156.187h502.726v111.283l-245.018 585.701z"></path>
<path fill="url('#logo-gradient')" d="M542.749 726.269l-26.784-11.843-18.188 41.128h44.972zM781.91 185.472l26.784 11.843 18.188-41.128h-44.972zM480.275 185.472h-29.285v29.285h29.285zM480.275 29.285v-29.285h-29.285v29.285zM983.001 29.285h29.285v-29.285h-29.285zM983.001 140.569l27.015 11.302 2.27-5.423v-5.879zM737.983 726.269v29.285h19.494l7.521-17.983zM569.533 738.113l239.161-540.797-53.567-23.687-239.161 540.797zM781.91 156.187h-301.636v58.57h301.636zM509.56 185.472v-156.187h-58.57v156.187zM480.275 58.57h502.726v-58.57h-502.726zM953.716 29.285v111.283h58.57v-111.283zM955.986 129.267l-245.018 585.701 54.031 22.603 245.018-585.701zM737.983 696.984h-195.234v58.57h195.234z"></path>
</svg>

<svg xmlns="http://www.w3.org/2000/svg" viewBox="0 0 1024 1024"><defs><linearGradient id="a" x1="25%" x2="75%" y1="0%" y2="100%"><stop offset="0%" stop-color="#FF5C00"><animate attributeName="stop-color" dur="2s" repeatCount="indefinite" values="#FF5C00; #001395; #FF5C00"/></stop><stop offset="100%" stop-color="#001395"><animate attributeName="stop-color" dur="2s" repeatCount="indefinite" values="#001395; #FF5C00; #001395"/></stop></linearGradient></defs><path fill="url('#a')" d="M103.474 994.715l239.161-540.797H40.999V297.731h502.726v111.283L298.707 994.715z"/><path fill="url('#a')" d="M103.474 994.715l-26.783-11.843L58.502 1024h44.972zm239.161-540.797l26.784 11.843 18.188-41.128h-44.972zm-301.636 0H11.714v29.285h29.285zm0-156.186v-29.285H11.714v29.285zm502.726 0h29.285v-29.285h-29.285zm0 111.283l27.015 11.302 2.27-5.423v-5.879zm-245.018 585.7V1024h19.494l7.521-17.983zm-168.45 11.844l239.162-540.797-53.567-23.687-239.16 540.797zm212.378-581.926H40.999v58.57h301.636zM70.284 453.918V297.731h-58.57v156.187zM40.999 327.017h502.726v-58.57H40.999zm473.441-29.285v111.283h58.57V297.732zm2.27 99.981L271.692 983.414l54.031 22.603 245.018-585.701zM298.707 965.43H103.473V1024h195.234z"/><path fill="url('#a')" d="M542.749 726.269L781.91 185.472H480.274V29.285H983v111.283L737.982 726.269z"/><path fill="url('#a')" d="M542.749 726.269l-26.784-11.843-18.188 41.128h44.972zM781.91 185.472l26.784 11.843 18.188-41.128H781.91zm-301.635 0H450.99v29.285h29.285zm0-156.187V0H450.99v29.285zm502.726 0h29.285V0h-29.285zm0 111.284l27.015 11.302 2.27-5.423v-5.879zm-245.018 585.7v29.285h19.494l7.521-17.983zm-168.45 11.844l239.161-540.797-53.567-23.687-239.161 540.797zM781.91 156.187H480.274v58.57H781.91zm-272.35 29.285V29.285h-58.57v156.187zM480.275 58.57h502.726V0H480.275zm473.441-29.285v111.283h58.57V29.285zm2.27 99.982L710.968 714.968l54.031 22.603 245.018-585.701zM737.983 696.984H542.749v58.57h195.234z"/></svg>
